usr/share/icons/biglinux-icons-material-dark/22/actions/object-order-raise.svg

<svg xmlns="http://www.w3.org/2000/svg" viewBox="0 0 22 22">
  <defs id="defs3051">
    <style type="text/css" id="current-color-scheme">
      .ColorScheme-Text {
        color:#dedede;
      }
      .ColorScheme-Highlight {
        color:#3daee9;
      }
      </style>
  </defs>
 <path 
     style="fill:currentColor;fill-opacity:1;stroke:none" 
     d="M 13 3 L 13 4 L 19 4 L 19 3 L 13 3 z M 11 5 L 11 6 L 19 6 L 19 5 L 11 5 z M 3 7 L 3 8 L 19 8 L 19 7 L 3 7 z M 6.5 9 L 6.28125 9.2148438 L 3 12.445312 L 3.71875 13.154297 L 6 10.908203 L 6 15.060547 L 6 19 L 7 19 L 7 15.060547 L 7 10.908203 L 9.28125 13.154297 L 10 12.445312 L 6.71875 9.2148438 L 6.5 9 z M 15 9 L 15 10 L 19 10 L 19 9 L 15 9 z M 10 11 L 10 12 L 19 12 L 19 11 L 10 11 z M 12 13 L 12 14 L 19 14 L 19 13 L 12 13 z M 16 15 L 16 16 L 19 16 L 19 15 L 16 15 z M 10 17 L 10 18 L 19 18 L 19 17 L 10 17 z "
     class="ColorScheme-Text"
     />
</svg>

<svg xmlns="http://www.w3.org/2000/svg" viewBox="0 0 22 22">
<defs id="defs3051">
<style id="current-color-scheme" type="text/css">
.ColorScheme-Text{color:#dedede}
</style>
</defs>
<path d="M13 3v1h6V3zm-2 2v1h8V5zM3 7v1h16V7zm3.5 2-.219.215L3 12.445l.719.71L6 10.907V19h1v-8.092l2.281 2.246.719-.709-3.281-3.23zM15 9v1h4V9zm-5 2v1h9v-1zm2 2v1h7v-1zm4 2v1h3v-1zm-6 2v1h9v-1z" class="ColorScheme-Text" style="fill:currentColor;fill-opacity:1;stroke:none"/>
</svg>
